azure-patterns/svg-shield-user.svg

<svg xmlns="http://www.w3.org/2000/svg" viewBox="0 0 49 49">
                                
                            
    <path d="M24.2445 0.921875C19.2162 3.81821 13.6995 5.92311 7.87109 7.09343V36.04L24.1687 48.8883L40.7442 36.0737V7.09343C34.9158 5.93153 29.4075 3.81821 24.3624 0.921875H24.2445Z" fill="#0078D4"></path>
    <path d="M29.6879 22.1133H29.0731C28.6941 22.1133 28.3151 22.2143 28.0118 22.4332C26.8832 23.2499 25.4935 23.7383 23.9859 23.7383C22.4782 23.7383 21.0885 23.2499 19.9599 22.4332C19.6567 22.2143 19.2777 22.1133 18.8987 22.1133C17.7616 22.1133 16.8015 22.9552 16.6583 24.0835L15.3359 33.9596H33.2507L31.9283 24.0835C31.7851 22.9552 30.825 22.1133 29.6879 22.1133Z" fill="#50E6FF"></path>
    <path d="M24.2867 21.148C27.0684 21.148 29.3233 18.8937 29.3233 16.113C29.3233 13.3323 27.0684 11.0781 24.2867 11.0781C21.505 11.0781 19.25 13.3323 19.25 16.113C19.25 18.8937 21.505 21.148 24.2867 21.148Z" fill="#50E6FF"></path>
</svg>

<svg xmlns="http://www.w3.org/2000/svg" viewBox="0 0 49 49"><path d="M24.244.922A54.146 54.146 0 0 1 7.871 7.093V36.04L24.17 48.888l16.575-12.814V7.094A54.14 54.14 0 0 1 24.362.921h-.117z" fill="#0078D4"/><path d="M29.688 22.113h-.615c-.379 0-.758.101-1.061.32a6.845 6.845 0 0 1-4.026 1.305 6.845 6.845 0 0 1-4.026-1.305 1.812 1.812 0 0 0-1.061-.32 2.255 2.255 0 0 0-2.24 1.97l-1.323 9.877H33.25l-1.323-9.877a2.255 2.255 0 0 0-2.24-1.97zM24.287 21.148a5.036 5.036 0 1 0-5.037-5.035 5.036 5.036 0 0 0 5.037 5.035z" fill="#50E6FF"/></svg>
